X:1
T:Chatham, CM
T:Chatham, CM
T:AME  Hymn & Tune Book, 1898
T:Public Domain Courtesy of the Cyber Hymnal™
C:AME  Hymn & Tune Book, 1898
Z:Public Domain
Z:Courtesy of the Cyber Hymnal™
%%score ( 1 2 ) ( 3 4 )
L:1/8
Q:1/4=100
M:4/4
K:G
V:1 treble 
V:2 treble 
V:3 bass 
V:4 bass 
V:1
 (G>A) | [DB]2 (B>c) [Gd]2 [Gd]2 | [Ge]2 [Fd]2 [Gd]2 [GB]2 | [Ac]2 [Ad]2 [GB]2 [Gc]2 | [FA]4 z2 | %5
 (B>c) | [Gd]2 [Dd]2 [DB]2 [DG]2 | [B,G]2 [CE]2 [EA]2 [DF]2 | ([DG][GB]d)c B2 [FA]2 | G6 |] %10
V:2
 D2 | x2 G2 x4 | x8 | x8 | x6 | G2 | x8 | x8 | x2 G4 x2 | G6 |] %10
V:3
 (B,>C) | [G,D]2 (G,>A,) [G,B,]2 [B,,D]2 | [C,C]2 [D,A,]2 [G,B,]2 [B,D]2 | %3
 [A,E]2 [F,D]2 [G,D]2 [C,E]2 | [D,D]4 z2 | (G,>A,) | [G,B,]2 [F,A,]2 G,2 [B,,G,]2 | %7
 [E,G,]2 [C,G,]2 [A,,C]2 A,C | (B,G,B,)[C,E] [D,D]2 [D,C]2 | [G,B,]6 |] %10
V:4
 G,2 | x2 G,2 x4 | x8 | x8 | x6 | G,2 | x4 G,2 x2 | x6 A,2 | G,3 x5 | x6 |] %10

